X:1
T:The Children’s Friend Is Jesus
T:The Children’s Friend Is Jesus
T:Robert Harkness
T:Robert Harkness, 1908
T:Public Domain Courtesy of the Cyber Hymnal™
C:Robert Harkness
Z:Public Domain
Z:Courtesy of the Cyber Hymnal™
%%score ( 1 2 ) ( 3 4 )
L:1/8
Q:1/4=105
M:6/8
K:C
V:1 treble 
V:2 treble 
V:3 bass 
V:4 bass 
V:1
 [EG] | [EG]2 [EG] ([EG][CE])[EG] | [FA]3 [Fc]2 [FA] | [EG]2 [CE] (DG)[DF] | [CE]3- [CE]2 [EG] | %5
w: 1.~The|child- ren’s friend * is|Je- sus, He|calls them to * His|side; * He|
w: 2.~The|child- ren’s friend * is|Je- sus, He|loves their joys * to|share, * He|
w: 3.~The|child- ren’s friend * is|Je- sus, There’s|no one else * so|true; * He|
 [EG]2 [EG] ([EG][CE])[EG] | [FA]3 [Fc]2 [FA] | [EG]2 [Ec] ([Fd][Ec])[DB] | [Ec]3- [Ec]2 || %9
w: gave His life * a|ran- som, Heaven’s|gate to o- * pen|wide. *|
w: knows their lit- * tle|sor- rows, He|longs each one * to|bear. *|
w: keeps all those * who|trust Him, As|no one else * can|do. *|
"^Refrain" [FG] | [Ec]2 [Ec] (dc)[FA] | [EG]3 [CE]3 | [DF]3 [B,D]3 | [EG]3 [CE]2 [FG] | %14
w: |||||
w: The|child- ren’s friend * is|Je- sus,|Je- sus,|Je- sus; His|
w: |||||
 [Ec]2 [Ec] (dc)[FA] | [EG]2 [CE] [EG]2 [CG] | [Ec]2 [Ec] ([Fd][Ec])[DB] | [Ec]3- [Ec]2 |] %18
w: ||||
w: life He gave * their|souls to save, The|child- ren’s friend * is|He. *|
w: ||||
V:2
 x | x6 | x6 | x3 B,2 x | x6 | x6 | x6 | x6 | x5 || x | x3 F2 x | x6 | x6 | x6 | x3 F2 x | x6 | %16
 x6 | x5 |] %18
V:3
 [C,C] | [C,C]2 [C,C] [C,C]2 [C,C] | [F,C]3 [F,A,]2 [F,C] | [G,C]2 G, [G,,G,]2 [G,,G,] | %4
 [C,G,]3- [C,G,]2 [C,C] | [C,C]2 [C,C] [C,C]2 [C,C] | [F,C]3 [F,A,]2 [F,C] | %7
 [G,C]2 G, [G,,G,]2 [G,,G,] | [C,G,]3- [C,G,]2 || G, | [C,G,]2 [C,^G,] [C,A,]2 [C,B,] | %11
 (C2 A,) [C,G,]3 | [G,,G,]3 G,3 | [C,G,]3 [C,G,]2 G, | [C,G,]2 [C,^G,] [C,A,]2 [C,B,] | %15
 [C,C]2 [C,G,] [C,C]2 [E,G,] | G,2 G, [G,,G,]2 G, | [C,G,]3- [C,G,]2 |] %18
V:4
 x | x6 | x6 | x2 G, x3 | x6 | x6 | x6 | x2 G, x3 | x5 || G, | x6 | C,3 x3 | x3 G,3 | x5 G, | x6 | %15
 x6 | G,2 G, x G, x | x5 |] %18

